Newaita/actions/32/draw-halfcircle1.svg

<svg height="32" viewBox="0 0 32 32" width="32" xmlns="http://www.w3.org/2000/svg"><g fill="#424242"><path d="m15.875 4.21875c-6.59375 0-11.90625 5.3125-11.90625 11.90625 0 6.597656 5.3125 11.910156 11.90625 11.910156v-2.648437c-5.128906 0-9.261719-4.128907-9.261719-9.261719 0-5.128906 4.132813-9.261719 9.261719-9.261719zm0 0"/><path d="m15.875 4.21875c.730469 0 1.324219.59375 1.324219 1.324219v21.167969c0 .730468-.59375 1.324218-1.324219 1.324218s-1.320312-.59375-1.320312-1.324218v-21.167969c0-.730469.589843-1.324219 1.320312-1.324219zm0 0"/></g></svg>

<?xml version="1.0" encoding="UTF-8"?>
<svg xmlns="http://www.w3.org/2000/svg" xmlns:xlink="http://www.w3.org/1999/xlink" width="32px" height="32px" viewBox="0 0 32 32" version="1.1">
<g id="surface1">
<path style=" stroke:none;fill-rule:nonzero;fill:rgb(25.882354%,25.882354%,25.882354%);fill-opacity:1;" d="M 15.875 4.21875 C 9.28125 4.21875 3.96875 9.53125 3.96875 16.125 C 3.96875 22.722656 9.28125 28.035156 15.875 28.035156 L 15.875 25.386719 C 10.746094 25.386719 6.613281 21.257812 6.613281 16.125 C 6.613281 10.996094 10.746094 6.863281 15.875 6.863281 Z M 15.875 4.21875 "/>
<path style=" stroke:none;fill-rule:nonzero;fill:rgb(25.882354%,25.882354%,25.882354%);fill-opacity:1;" d="M 15.875 4.21875 C 16.605469 4.21875 17.199219 4.8125 17.199219 5.542969 L 17.199219 26.710938 C 17.199219 27.441406 16.605469 28.035156 15.875 28.035156 C 15.144531 28.035156 14.554688 27.441406 14.554688 26.710938 L 14.554688 5.542969 C 14.554688 4.8125 15.144531 4.21875 15.875 4.21875 Z M 15.875 4.21875 "/>
</g>
</svg>
